Numix-Light/16/status/indicator-keyboard-Et-3.svg

<?xml version="1.0" encoding="UTF-8" standalone="no"?>
<svg
   xmlns:dc="http://purl.org/dc/elements/1.1/"
   xmlns:cc="http://creativecommons.org/ns#"
   xmlns:rdf="http://www.w3.org/1999/02/22-rdf-syntax-ns#"
   xmlns:svg="http://www.w3.org/2000/svg"
   xmlns="http://www.w3.org/2000/svg"
   xmlns:sodipodi="http://sodipodi.sourceforge.net/DTD/sodipodi-0.dtd"
   xmlns:inkscape="http://www.inkscape.org/namespaces/inkscape"
   viewBox="0 0 16 16"
   id="svg2"
   version="1.1"
   inkscape:version="0.91 r13725"
   sodipodi:docname="indicator-keyboard-Et-3.svg">
  <metadata
     id="metadata14">
    <rdf:RDF>
      <cc:Work
         rdf:about="">
        <dc:format>image/svg+xml</dc:format>
        <dc:type
           rdf:resource="http://purl.org/dc/dcmitype/StillImage" />
      </cc:Work>
    </rdf:RDF>
  </metadata>
  <defs
     id="defs12" />
  <sodipodi:namedview
     pagecolor="#ffffff"
     bordercolor="#666666"
     borderopacity="1"
     objecttolerance="10"
     gridtolerance="10"
     guidetolerance="10"
     inkscape:pageopacity="0"
     inkscape:pageshadow="2"
     inkscape:window-width="459"
     inkscape:window-height="369"
     id="namedview10"
     showgrid="false"
     inkscape:zoom="14.75"
     inkscape:cx="8"
     inkscape:cy="8"
     inkscape:window-x="65"
     inkscape:window-y="24"
     inkscape:window-maximized="0"
     inkscape:current-layer="svg2" />
  <path
     style="fill:#353535;fill-opacity:1"
     d="M 1.5996094 0 C 0.71320937 2.9605947e-16 0 0.71320937 0 1.5996094 L 0 14.400391 C 2.9605947e-16 15.286791 0.71320937 16 1.5996094 16 L 14.400391 16 C 15.286791 16 16 15.286791 16 14.400391 L 16 1.5996094 C 16 0.71320937 15.286791 0 14.400391 0 L 1.5996094 0 z M 2.7597656 4.859375 L 6.359375 4.859375 L 6.359375 5.390625 L 3.3710938 5.390625 L 3.3710938 7.5585938 L 6.0351562 7.5585938 L 6.0351562 8.0800781 L 3.3710938 8.0800781 L 3.3710938 10.564453 L 6.59375 10.564453 L 6.59375 11.095703 L 2.7597656 11.095703 L 2.7597656 4.859375 z M 8.2636719 4.9667969 L 8.2636719 6.4433594 L 10.117188 6.4433594 L 10.117188 6.9375 L 8.2636719 6.9375 L 8.2636719 9.4121094 C 8.2636719 9.6761094 8.2841719 9.8925467 8.3261719 10.060547 C 8.3741719 10.222547 8.4413906 10.349453 8.5253906 10.439453 C 8.6093906 10.529453 8.7100781 10.589141 8.8300781 10.619141 C 8.9500781 10.649141 9.0825625 10.664062 9.2265625 10.664062 C 9.4725625 10.664062 9.6703125 10.636031 9.8203125 10.582031 C 9.9703128 10.522031 10.087875 10.469875 10.171875 10.421875 L 10.316406 10.90625 C 10.232406 10.96025 10.085 11.023703 9.875 11.095703 C 9.665 11.161703 9.4374062 11.195313 9.1914062 11.195312 C 8.9034063 11.195312 8.6608906 11.159891 8.4628906 11.087891 C 8.2708906 11.009891 8.1141406 10.894141 7.9941406 10.744141 C 7.8801406 10.588141 7.7999531 10.397922 7.7519531 10.169922 C 7.7039531 9.9419217 7.6796875 9.671375 7.6796875 9.359375 L 7.6796875 5.0742188 L 8.2636719 4.9667969 z M 11.873047 8.7539062 C 12.075847 8.7539062 12.248278 8.7793781 12.392578 8.8300781 C 12.540778 8.8807781 12.664219 8.953275 12.761719 9.046875 C 12.859219 9.136575 12.931716 9.2463 12.978516 9.375 C 13.025316 9.4997999 13.048828 9.6350031 13.048828 9.7832031 C 13.048828 10.021103 12.984169 10.217041 12.855469 10.369141 C 12.730669 10.517341 12.568041 10.625106 12.369141 10.691406 C 12.478341 10.718706 12.584147 10.759859 12.685547 10.818359 C 12.790847 10.872959 12.884897 10.945456 12.966797 11.035156 C 13.048697 11.120956 13.115316 11.226762 13.166016 11.351562 C 13.216716 11.476363 13.240234 11.623316 13.240234 11.791016 C 13.240234 11.962616 13.210838 12.119372 13.148438 12.263672 C 13.089938 12.407972 12.999806 12.535331 12.878906 12.644531 C 12.761906 12.749831 12.611034 12.834084 12.427734 12.896484 C 12.244434 12.954984 12.030856 12.984375 11.785156 12.984375 C 11.656456 12.984375 11.536934 12.974578 11.427734 12.955078 C 11.322434 12.939478 11.228384 12.919884 11.146484 12.896484 C 11.064584 12.873084 10.994047 12.849572 10.935547 12.826172 C 10.880947 12.802772 10.8398 12.783178 10.8125 12.767578 L 10.912109 12.427734 C 10.935509 12.443334 10.974697 12.462928 11.029297 12.486328 C 11.083897 12.509728 11.148556 12.533241 11.222656 12.556641 C 11.300656 12.576141 11.386869 12.593775 11.480469 12.609375 C 11.577969 12.624975 11.683775 12.632813 11.796875 12.632812 C 12.167375 12.632812 12.431897 12.556397 12.591797 12.404297 C 12.751697 12.248297 12.832031 12.040597 12.832031 11.779297 C 12.832031 11.607697 12.798722 11.464662 12.732422 11.351562 C 12.670022 11.238462 12.58185 11.148331 12.46875 11.082031 C 12.35955 11.011831 12.230231 10.962847 12.082031 10.935547 C 11.937731 10.904347 11.784894 10.888672 11.621094 10.888672 L 11.5625 10.888672 L 11.5625 10.574219 L 11.697266 10.574219 C 11.802566 10.574219 11.908378 10.564422 12.017578 10.544922 C 12.130678 10.521522 12.232566 10.480375 12.322266 10.421875 C 12.415866 10.363375 12.492281 10.285 12.550781 10.1875 C 12.613181 10.09 12.644531 9.9646001 12.644531 9.8125 C 12.644531 9.6838 12.622978 9.5760281 12.580078 9.4863281 C 12.537178 9.3927281 12.478397 9.3182719 12.404297 9.2636719 C 12.334097 9.2090719 12.249844 9.1698844 12.152344 9.1464844 C 12.058744 9.1191844 11.960769 9.1054687 11.855469 9.1054688 C 11.644869 9.1054688 11.480281 9.1348594 11.363281 9.1933594 C 11.246281 9.2518594 11.150272 9.3067219 11.076172 9.3574219 L 10.912109 9.0585938 C 10.951109 9.0312937 11.000094 8.9999437 11.058594 8.9648438 C 11.120994 8.9297437 11.193491 8.8964344 11.275391 8.8652344 C 11.357291 8.8340344 11.447422 8.8085625 11.544922 8.7890625 C 11.646322 8.7656625 11.756047 8.7539062 11.873047 8.7539062 z "
     id="path4" />
</svg>

<svg xmlns="http://www.w3.org/2000/svg" viewBox="0 0 16 16">
 <path d="m 1.6 0 c -0.886 0 -1.6 0.713 -1.6 1.6 l 0 12.801 c 0 0.886 0.713 1.6 1.6 1.6 l 12.801 0 c 0.886 0 1.6 -0.713 1.6 -1.6 l 0 -12.801 c 0 -0.886 -0.713 -1.6 -1.6 -1.6 l -12.801 0 z m 1.16 4.859 l 3.6 0 l 0 0.531 l -2.988 0 l 0 2.168 l 2.664 0 l 0 0.521 l -2.664 0 l 0 2.484 l 3.223 0 l 0 0.531 l -3.834 0 l 0 -6.236 z m 5.504 0.107 l 0 1.477 l 1.854 0 l 0 0.494 l -1.854 0 l 0 2.475 c 0 0.264 0.021 0.48 0.063 0.648 c 0.048 0.162 0.115 0.289 0.199 0.379 c 0.084 0.09 0.185 0.15 0.305 0.18 c 0.12 0.03 0.252 0.045 0.396 0.045 c 0.246 0 0.444 -0.028 0.594 -0.082 c 0.15 -0.06 0.268 -0.112 0.352 -0.16 l 0.145 0.484 c -0.084 0.054 -0.231 0.117 -0.441 0.189 c -0.21 0.066 -0.438 0.1 -0.684 0.1 c -0.288 0 -0.531 -0.035 -0.729 -0.107 c -0.192 -0.078 -0.349 -0.194 -0.469 -0.344 c -0.114 -0.156 -0.194 -0.346 -0.242 -0.574 c -0.048 -0.228 -0.072 -0.499 -0.072 -0.811 l 0 -4.285 l 0.584 -0.107 z m 3.609 3.787 c 0.203 0 0.375 0.025 0.52 0.076 c 0.148 0.051 0.272 0.123 0.369 0.217 c 0.098 0.09 0.17 0.199 0.217 0.328 c 0.047 0.125 0.07 0.26 0.07 0.408 c 0 0.238 -0.065 0.434 -0.193 0.586 c -0.125 0.148 -0.287 0.256 -0.486 0.322 c 0.109 0.027 0.215 0.068 0.316 0.127 c 0.105 0.055 0.199 0.127 0.281 0.217 c 0.082 0.086 0.149 0.192 0.199 0.316 c 0.051 0.125 0.074 0.272 0.074 0.439 c 0 0.172 -0.029 0.328 -0.092 0.473 c -0.059 0.144 -0.149 0.272 -0.27 0.381 c -0.117 0.105 -0.268 0.19 -0.451 0.252 c -0.183 0.059 -0.397 0.088 -0.643 0.088 c -0.129 0 -0.248 -0.01 -0.357 -0.029 c -0.105 -0.016 -0.199 -0.035 -0.281 -0.059 c -0.082 -0.023 -0.152 -0.047 -0.211 -0.07 c -0.055 -0.023 -0.096 -0.043 -0.123 -0.059 l 0.1 -0.34 c 0.023 0.016 0.063 0.035 0.117 0.059 c 0.055 0.023 0.119 0.047 0.193 0.07 c 0.078 0.019 0.164 0.037 0.258 0.053 c 0.098 0.016 0.203 0.023 0.316 0.023 c 0.37 0 0.635 -0.076 0.795 -0.229 c 0.16 -0.156 0.24 -0.364 0.24 -0.625 c 0 -0.172 -0.033 -0.315 -0.1 -0.428 c -0.062 -0.113 -0.151 -0.203 -0.264 -0.27 c -0.109 -0.07 -0.239 -0.119 -0.387 -0.146 c -0.144 -0.031 -0.297 -0.047 -0.461 -0.047 l -0.059 0 l 0 -0.314 l 0.135 0 c 0.105 0 0.211 -0.01 0.32 -0.029 c 0.113 -0.023 0.215 -0.065 0.305 -0.123 c 0.094 -0.059 0.17 -0.137 0.229 -0.234 c 0.062 -0.098 0.094 -0.223 0.094 -0.375 c 0 -0.129 -0.022 -0.236 -0.064 -0.326 c -0.043 -0.094 -0.102 -0.168 -0.176 -0.223 c -0.07 -0.055 -0.154 -0.094 -0.252 -0.117 c -0.094 -0.027 -0.192 -0.041 -0.297 -0.041 c -0.211 0 -0.375 0.029 -0.492 0.088 c -0.117 0.059 -0.213 0.113 -0.287 0.164 l -0.164 -0.299 c 0.039 -0.027 0.088 -0.059 0.146 -0.094 c 0.062 -0.035 0.135 -0.068 0.217 -0.1 c 0.082 -0.031 0.172 -0.057 0.27 -0.076 c 0.101 -0.023 0.211 -0.035 0.328 -0.035 z" style="fill:#353535;fill-opacity:1"/>
</svg>
